icon-themes/breeze_svg/cmd/sc_datasort.svg

<svg viewBox="0 0 16 16" xmlns="http://www.w3.org/2000/svg">/&gt;<path d="m10.5 2-.21875.21875-3.28125 3.28125.71875.71875 2.28125-2.28125v8.28125h1v-8.28125l2.28125 2.28125.71875-.71875-3.28125-3.28125zm-5.5 1.78125v8.28125l-2.28125-2.28125-.71875.71875 3.28125 3.28125.21875.21875.21875-.21875 3.28125-3.28125-.71875-.71875-2.28125 2.28125v-8.28125z" fill="#4d4d4d"/></svg>

<svg xmlns="http://www.w3.org/2000/svg" viewBox="0 0 16 16">
     />
 <path 
     style="fill:#4d4d4d" 
     d="M 10.5 2 L 10.28125 2.21875 L 7 5.5 L 7.71875 6.21875 L 10 3.9375 L 10 12.21875 L 11 12.21875 L 11 3.9375 L 13.28125 6.21875 L 14 5.5 L 10.71875 2.21875 L 10.5 2 z M 5 3.78125 L 5 12.0625 L 2.71875 9.78125 L 2 10.5 L 5.28125 13.78125 L 5.5 14 L 5.71875 13.78125 L 9 10.5 L 8.28125 9.78125 L 6 12.0625 L 6 3.78125 L 5 3.78125 z "
     />
 </svg>
